X:3002
T:Campbell's Farewell to Redcastle
T:Farewell to Red Gap
R:Reel
C:Trad.
O:Scotland
M:2/4
L:1/8
Q:1/8=180
K:Amix
E|"A"AA/B/ cc/d/|ea e>d|cA AB/c/|"G"dd/B/ GE|
"A"AA/B/ cc/d/|ea e>d|c/B/A B/A/G|A2 A:|
g/f/|"A"ea ag/f/|ea a>d|cA AB/c/|"G"dd/B/ Gg/f/|
"A"ea ag/f/|ea a>d|cB/A/ G/A/B/G/|A2 Ag/f/|
"A"ea ag/f/|ea e>d|cA AB/c/|"G"dd/B/ GE|
"A"AA/B/ cc/d/|ea e>d|c/B/A B/A/G|A2 A|]

